X: 1
T: Britain's Glory   (G)
O: Playford 1710
S: Tom Roby 2015-2-25
R: slow jig
Z: 2015 John Chambers <jc:trillian.mit.edu>
Q: "Cantabile"
M: 6/4
L: 1/4
K: G
% - - - - - - - - - - - - - - - - - - - - - - - - - - - - -
D |\
"D"DEF "G"G2B | "D"AFA d3 | "D"f>gf "G"e2d | "Em"efe "A"cBA |\
"D"DEF "G"G2B | "D"AFA d3 | "D"f>gf "E7"e2d | "A"e3- "A7"e2 :|
|: f/g/ |\
"D"a2A "Bm"d2c | "G"B2g "A"e>dc | "D"d2c "Bm"B2A | "Em"G2e "A7"c>BA |\
"D"f>ga/b/ "G"g2f | "Em(A7)"e>fg/a/ "A7(D)"f2e | "G"d>ef/g/ "A7"e2d | "D"d3- d2 :|
% - - - - - - - - - - Dance description - - - - - - - - - -
%%center four-couple set (couples 3 & 4 improper)
%%begintext align
%% First Man and 2d Woman take both Hands and turn quite round,
%% then first Man cast off below the 2d Man,
%% and 2d Wo. cast up above the first Wo. at the same time -
%% The 2d Man and first Wo. do the same after them -
%% Then first Men Hey with the 2d and 3d Men,
%% the first Wo. Hey with the 2d and 3d We. at the same Time,
%% till all comes into their Places again _
%% Then the first Cu. cast off and go Right-hands and Left quite round with the 2d Cu.
%% which brings the first. Cu. into the 2d Cu. Places -
%%endtext
